X:11
T:Redwing
M:4/4
L:1/8
K:G
|:zD|GGG/2A/2B/2c/2 d3G|cege d3B|c3/2B/2Ac B3/2A/2GB|AEFG A3D|
GGG/2A/2B/2c/2 d3G|cege d3B|c3/2B/2Ac B3/2A/2GB|AEFD G2:|
gf|e2e2egfe|d2B2-Bded|d2A2-Aded|d2B2-B2gf|
e2e2egfe|d2B2-Bded|d2A2-AcBA|G4-G3|]


